X:10090
T:Maid at the Well, The
M:6/8
L:1/8
R:jig
D:Dervish: Midsummer's Night
Z:Devin McCabe
K:A
aec Ace|aec d2f|ecA ABc|BAF FEF|
!aec Ace|aec d2f|ecA ABc|~B3 Ace|
!aec Ace|aec d2f|ecA ABc|BAF FEF|
!AFE ECE|ABc d2f|ecA ABc|BAG AcB|
!:AFE ECE|ABc d2f|ecA ABc|BAF FEF|
!AFE ECE|ABc d2f|ecA ABc|1BAG AcB:|2BAG Ace||
